!!!COM: Palestrina, Giovanni Perluigi da
!!!OPR: In te Domine speravi (1593-4)
!!!OTL: Sanctus
**kern	**kern	**kern	**kern
*Ibass	*Itenor	*Icalto	*Icant
!Bassus	!Tenor	!Altus	!Cantus
*clefF4	*clefGv2	*clefG2	*clefG2
*k[]	*k[]	*k[]	*k[]
*D:dor	*D:dor	*D:dor	*D:dor
*M4/2	*M4/2	*M4/2	*M4/2
=1	=1	=1	=1
0r	0r	1d	0r
.	.	1d	.
=2	=2	=2	=2
0r	0r	1g	1r
.	.	2.f	1a
.	.	4g	.
=3	=3	=3	=3
0r	0r	4a	1a
.	.	4b	.
.	.	1cc	.
.	.	.	1dd
.	.	2b	.
=4	=4	=4	=4
0r	0r	2a	2.cc
.	.	1cc	.
.	.	.	4dd
.	.	.	4ee
.	.	.	4ff
.	.	2b	2gg
=5	=5	=5	=5
0r	1A	2.a	2ff
.	.	.	4ee
.	.	4b	4dd
.	1A	4cc	4ee
.	.	4b	4dd
.	.	4a	4cc
.	.	4g	4b
=6	=6	=6	=6
0r	1d	4f	2a
.	.	4g	.
.	.	2.a	2.ff
.	2.c	.	.
.	.	4g	4ee
.	.	[2cc	[2ee
.	4d	.	.
=7	=7	=7	=7
0r	4e	2cc]	2ee]
.	4f	.	.
.	2.g	4b	4dd
.	.	4a	4cc
.	.	2b	2dd
.	4f	.	.
.	4e	[2cc	[2ee
.	4d	.	.
=8	=8	=8	=8
0r	2c	4cc]	2ee]
.	.	4b	.
.	2d	1a	4dd
.	.	.	4cc
.	1e	.	1b
.	.	2g#	.
=9	=9	=9	=9
1D	2.f	2.a	2.dd
.	4e	4g	4cc
1D	2.d	2.f	2b
.	.	.	[2a
.	4c	4e	.
=10	=10	=10	=10
1G	1B	2d	2a]
.	.	2e	2g
2.F	2A	1f	2.a
.	[2f	.	.
4G	.	.	4b
=11	=11	=11	=11
4A	2f]	1c	4cc
4B	.	.	4dd
2.c	4e	.	2.ee
.	4d	.	.
.	2e	1r	.
4B	.	.	4dd
4A	[2f	.	4cc
4G	.	.	4b
=12	=12	=12	=12
2F	4f]	1d	2a
.	4e	.	.
2.G	4d	.	2b
.	4c	.	.
.	4B	1d	1g
4F	4c	.	.
4E	[2d	.	.
4D	.	.	.
=13	=13	=13	=13
1E	2d]	1g	1r
.	2c#	.	.
2D	1d	2.f	1a
[2d	.	.	.
.	.	4e	.
=14	=14	=14	=14
2d]	1r	4f	1a
.	.	4g	.
2c	.	1a	.
1B	2.d	.	1dd
.	.	2g#	.
.	4e	.	.
=15	=15	=15	=15
2A	2f	2a	2.cc
1c	4e	4g	.
.	4d	4f	4dd
.	2c	1g	4ee
.	.	.	4ff
2B	2d	.	[2gg
=16	=16	=16	=16
1A	2e	1c	2gg]
.	2c	.	2ff
2G	2g	2r	2ee
[2B-	4f	2d	[2dd
.	4e	.	.
=17	=17	=17	=17
2B-]	4d	1f	2dd]
.	4e	.	.
2A	1f	.	2cc
1G	.	1g	1b-
.	2e	.	.
=18	=18	=18	=18
2.F	2f	1c	2a
.	1a	.	1ff
4G	.	.	.
4A	.	2.cc	.
4B	.	.	.
2c	2g	.	[2ee
.	.	4b-	.
=19	=19	=19	=19
1d	1f	0a	4ee]
.	.	.	4dd
.	.	.	1dd
1A	1e	.	.
.	.	.	2cc#
=20	=20	=20	=20
2D	1d	1a	4dd
.	.	.	4ee
1d	.	.	4ff
.	.	.	4dd
.	1A	2r	[1ee
2c	.	[2a	.
=21	=21	=21	=21
2A	1r	2a]	1ee]
1c	.	2g	.
.	2r	2e	1r
2B	[2d	2g	.
=22	=22	=22	=22
2.A	2d]	2f	0r
.	2c	2e	.
4B	.	.	.
2c	2e	2A	.
2d	2f	[2a	.
=23	=23	=23	=23
1B	1d	4a]	2r
.	.	4g#	.
.	.	4g#	1dd
.	.	8f#	.
.	.	8g#	.
1A	2r	2.a	.
.	[2a	.	2cc
.	.	4g	.
=24	=24	=24	=24
0r	2a]	2f	2a
.	2g	4e	1cc
.	.	4d	.
.	2e	2c	.
.	[2g	2G	2b
=25	=25	=25	=25
0r	2g]	1d	2.a
.	2f	.	.
.	.	.	4b
.	2e	2r	2cc
.	2d	[2a	2dd
=26	=26	=26	=26
1r	1e	2a]	1b
.	.	2g	.
2r	1A	2e	2.a
[2A	.	[2cc	.
.	.	.	4g
=27	=27	=27	=27
2A]	2r	2cc]	4e
.	.	.	4f
2G	1e	2b	4g
.	.	.	4a
2E	.	2.g	2.b
[2G	2d	.	.
.	.	4a	4cc
=28	=28	=28	=28
2G]	2B	2b	2dd
2F	2d	2.a	2dd
2.E	4c	.	[1ee
.	4B	4g	.
.	[2e	2cc	.
4F	.	.	.
=29	=29	=29	=29
2G	4e]	2b	1ee]
.	4d	.	.
2A	4c	2.cc	.
.	4B	.	.
1F	2A	.	1r
.	.	4b	.
.	[2d	2a	.
=30	=30	=30	=30
1E	2d]	2.g	2r
.	2c#	.	1gg
.	.	4a	.
[1D	1d	2b-	.
.	.	2a	2ff
=31	=31	=31	=31
1D]	2r	2f	2dd
.	1d	1a	1ff
[1A	.	.	.
.	2c	4A	2ee
.	.	4B	.
=32	=32	=32	=32
1A]	2A	4c	2.cc
.	.	4d	.
.	1c	4e	.
.	.	4f	4dd
1G	.	1g	2ee
.	2B	.	[2dd
=33	=33	=33	=33
2.F	2.A	0a	2dd]
.	.	.	2.cc
4G	4B	.	.
2A	2c	.	.
.	.	.	4b
2D	2d	.	[2a
=34	=34	=34	=34
2r	1B	1d	2a]
2d	.	.	2g#
2d	1A	2f	[1a
2c#	.	2e	.
=35	=35	=35	=35
1d	2r	2.f	2a]
.	2d	.	2dd
.	.	4g	.
1A	2f	1a	2dd
.	2e	.	2cc#
=36	=36	=36	=36
1r	2f	2d	1dd
.	4d	1f	.
.	4e	.	.
2r	4f	.	2a
.	4g	.	.
2F	[2a	2f	[2cc
=37	=37	=37	=37
4F	4a]	1c	4cc]
4G	4g	.	4b-
4A	1f	.	2a
4B	.	.	.
1c	.	2r	1g
.	2e	[2cc	.
=38	=38	=38	=38
1F	2.f	4cc]	1f
.	.	4b-	.
.	.	2a	.
.	8e	.	.
.	8d	.	.
2r	2e	2g	2r
2F	2f	[2a	[2cc
=39	=39	=39	=39
4F	1c	4a]	4cc]
4G	.	4g	4b-
4A	.	1f	2a
4B	.	.	.
1c	1r	.	1g
.	.	2e	.
=40	=40	=40	=40
2F	2r	1f	2.a
1F	1a	.	.
.	.	.	4b
.	.	1r	1cc
2E	2g	.	.
=41	=41	=41	=41
2F	2a	2r	2r
4F	2f	1a	1ff
4G	.	.	.
4A	1c	.	.
4B	.	.	.
2c	.	2g	2ee
=42	=42	=42	=42
2A	0r	2a	2ff
1G	.	2.b-	2.gg
.	.	4a	4ff
2G	.	4g	4ee
.	.	4f	4dd
=43	=43	=43	=43
2.A	2r	4e	1cc
.	.	8f	.
.	.	8g	.
.	1f	2a	.
4B	.	.	.
1c	.	1g	2cc
.	2e	.	2cc
=44	=44	=44	=44
2B-	2f	1b-	2dd
2G	2.g	.	2.ee
1B-	.	2b-	.
.	4f	.	4dd
.	4e	2g	[2dd
.	4d	.	.
=45	=45	=45	=45
2.A	2e	1a	2dd]
.	2.f	.	2cc#
4G	.	.	.
2F	.	2a	1dd
.	4e	.	.
2G	[2d	4g	.
.	.	4f	.
=46	=46	=46	=46
1E	2d]	1g	2r
.	2c#	.	2ee
1D	1d	2r	1ff
.	.	2a	.
=47	=47	=47	=47
0r	1A	1cc	2ee
.	.	.	2cc
.	2r	2b	2dd
.	2e	[2cc	2ee
=48	=48	=48	=48
0r	1f	4cc]	4a
.	.	4b	4b
.	.	2a	4cc
.	.	.	4a
.	2e	2g#	2b
.	2c	[2a	2cc
=49	=49	=49	=49
2r	2d	2a]	1b
2E	2e	2g#	.
1F	4A	1a	1a
.	4B	.	.
.	4c	.	.
.	4d	.	.
=50	=50	=50	=50
2E	2e	1r	2r
2C	2g	.	2ee
4D	2f	1a	1ff
4E	.	.	.
4F	2d	.	.
4G	.	.	.
=51	=51	=51	=51
4A	4c	1cc	2ee
4B	4d	.	.
4c	4e	.	2cc
4A	4c	.	.
2B	1g	2b	2dd
2c	.	2g	[2ee
=52	=52	=52	=52
2.F	1f	1a	4ee]
.	.	.	4dd
.	.	.	1dd
4G	.	.	.
1A	1e	1a	.
.	.	.	2cc#
=53	=53	=53	=53
0D	0f#	0a	0dd
==	==	==	==
*-	*-	*-	*-
!!!CDT: 1525/^1526/-1594/2/2
!!!OCY: Italia
!!!AGN: Mass (Parody)
!!!AST: renaissance, vocal
!!!ASW: Motet (?Lhéritier)
!!!PWK: Masses, Book 6
!!!RNB: Cadence finals: A
!!!YOR: Le Opere Complete, v. 21, p. 26
!!!YOO: Rome, Italy: Fratelli Scalera
!!!END: 1992//
!!!EED: John Miller
!!!YEC: Copyright 2000, John Miller
!!!YEN: United States of America
!!!YEM: Rights to all derivative electronic formats reserved.
!!!YEM: Refer to licensing agreement for further details.
!!!YEM: This file must be accompanied by the licensing agreement.
!!!YEM: A copy of the licensing agreement may be found at http://www.music-cog.ohio-state.edu/HumdrumDatabases/Palestrina/license.txt
!!!EMD: converted to Humdrum by Bret Aarden
